devoot-frontend/vue-project/src/assets/icons/update_profile.svg

<svg width="24" height="24" viewBox="0 0 24 24" fill="none" xmlns="http://www.w3.org/2000/svg">
<g id="Icon / update_profile">
<g id="Icon">
<path id="Vector" d="M6.4 7.5C6.4 6.28 6.88464 5.10998 7.74731 4.24731C8.60998 3.38464 9.78 2.9 11 2.9C12.22 2.9 13.39 3.38464 14.2527 4.24731C15.1154 5.10998 15.6 6.28 15.6 7.5C15.6 8.72 15.1154 9.89002 14.2527 10.7527C13.39 11.6154 12.22 12.1 11 12.1C9.78 12.1 8.60998 11.6154 7.74731 10.7527C6.88464 9.89002 6.4 8.72 6.4 7.5ZM2.9 19C2.9 17.9126 3.33196 16.8698 4.10086 16.1009C4.86976 15.332 5.91261 14.9 7 14.9H15C16.0874 14.9 17.1302 15.332 17.8991 16.1009C18.668 16.8698 19.1 17.9126 19.1 19V21.1H2.9V19Z" stroke="currentColor" stroke-width="1.8"/>
<g id="Vector_2">
<path fill-rule="evenodd" clip-rule="evenodd" d="M18.9898 10.4101C19.3856 9.93178 20.097 9.86165 20.5797 10.2537C20.6064 10.275 21.464 10.9488 21.464 10.9488C21.9944 11.273 22.1592 11.9623 21.8314 12.4883C21.8139 12.5165 16.9653 18.6499 16.9653 18.6499C16.804 18.8534 16.5591 18.9736 16.2974 18.9764L14.4406 19L14.0222 17.2092C13.9636 16.9574 14.0222 16.693 14.1835 16.4895L18.9898 10.4101Z" fill="white"/>
<path fill-rule="evenodd" clip-rule="evenodd" d="M18.0923 11.5484L20.874 13.7088L18.0923 11.5484Z" fill="white"/>
<path d="M18.0923 11.5484L20.874 13.7088M18.9898 10.4101C19.3856 9.93178 20.097 9.86165 20.5797 10.2537C20.6064 10.275 21.464 10.9488 21.464 10.9488C21.9944 11.273 22.1592 11.9623 21.8314 12.4883C21.8139 12.5165 16.9653 18.6499 16.9653 18.6499C16.804 18.8534 16.5591 18.9736 16.2974 18.9764L14.4406 19L14.0222 17.2092C13.9636 16.9574 14.0222 16.693 14.1835 16.4895L18.9898 10.4101Z" stroke="currentColor" stroke-width="1.5" stroke-linecap="round" stroke-linejoin="round"/>
</g>
</g>
</g>
</svg>

<svg xmlns="http://www.w3.org/2000/svg" fill="none" viewBox="0 0 24 24">
  <path stroke="#000" stroke-width="1.8" d="M6.4 7.5a4.6 4.6 0 1 1 9.2 0 4.6 4.6 0 0 1-9.2 0ZM2.9 19A4.1 4.1 0 0 1 7 14.9h8a4.1 4.1 0 0 1 4.1 4.1v2.1H2.9V19Z"/>
  <path fill="#fff" fill-rule="evenodd" d="M18.99 10.41a1.137 1.137 0 0 1 1.59-.156l.884.695c.53.324.695 1.013.367 1.54-.017.027-4.866 6.16-4.866 6.16a.863.863 0 0 1-.668.327L14.441 19l-.419-1.79a.848.848 0 0 1 .162-.72l4.806-6.08Zm-.898 1.138 2.782 2.16-2.782-2.16Z" clip-rule="evenodd"/>
  <path stroke="#000" stroke-linecap="round" stroke-linejoin="round" stroke-width="1.5" d="m18.092 11.548 2.782 2.16M18.99 10.41a1.137 1.137 0 0 1 1.59-.156l.884.695c.53.324.695 1.013.367 1.54-.017.027-4.866 6.16-4.866 6.16a.863.863 0 0 1-.668.327L14.441 19l-.419-1.79a.848.848 0 0 1 .162-.72l4.806-6.08Z"/>
</svg>
